src/assets/aboutPage/collaborationIcon.svg

<svg width="77" height="77" viewBox="0 0 77 77" fill="none" xmlns="http://www.w3.org/2000/svg">
<path d="M66.3095 36.7619H61.0952V22.8571C61.0952 19.0333 57.9667 15.9048 54.1429 15.9048H40.2381V10.6905C40.2381 5.89333 36.3448 2 31.5476 2C26.7505 2 22.8571 5.89333 22.8571 10.6905V15.9048H8.95238C5.12857 15.9048 2.03476 19.0333 2.03476 22.8571V36.0667H7.21429C12.3938 36.0667 16.6 40.2729 16.6 45.4524C16.6 50.6319 12.3938 54.8381 7.21429 54.8381H2V68.0476C2 71.8714 5.12857 75 8.95238 75H22.1619V69.7857C22.1619 64.6062 26.3681 60.4 31.5476 60.4C36.7271 60.4 40.9333 64.6062 40.9333 69.7857V75H54.1429C57.9667 75 61.0952 71.8714 61.0952 68.0476V54.1429H66.3095C71.1067 54.1429 75 50.2495 75 45.4524C75 40.6552 71.1067 36.7619 66.3095 36.7619Z" fill="white" fill-opacity="0.54" stroke="#EB850E" stroke-width="3"/>
<path fill-rule="evenodd" clip-rule="evenodd" d="M42.8343 38.9563C45.4851 38.9563 47.609 36.8164 47.609 34.1656C47.609 31.5148 45.4851 29.375 42.8343 29.375C40.1835 29.375 38.0437 31.5148 38.0437 34.1656C38.0437 36.8164 40.1835 38.9563 42.8343 38.9563ZM33.2531 37.3593H30.0593V34.1656C30.0593 33.2873 29.3407 32.5687 28.4625 32.5687C27.5842 32.5687 26.8656 33.2873 26.8656 34.1656V37.3593H23.6718C22.7935 37.3593 22.075 38.0779 22.075 38.9562C22.075 39.8345 22.7935 40.5531 23.6718 40.5531H26.8656V43.7468C26.8656 44.6251 27.5842 45.3437 28.4625 45.3437C29.3407 45.3437 30.0593 44.6251 30.0593 43.7468V40.5531H33.2531C34.1314 40.5531 34.85 39.8345 34.85 38.9562C34.85 38.0779 34.1314 37.3593 33.2531 37.3593ZM33.2532 46.9407C33.2532 43.7469 39.6407 42.15 42.8345 42.15C46.0282 42.15 52.4157 43.7469 52.4157 46.9407V48.5375C52.4157 49.4158 51.6971 50.1344 50.8188 50.1344H34.8501C33.9718 50.1344 33.2532 49.4158 33.2532 48.5375V46.9407Z" fill="#EB850E"/>
</svg>

<svg width="77" height="77" fill="none" xmlns="http://www.w3.org/2000/svg"><path d="M66.31 36.762h-5.215V22.857c0-3.824-3.128-6.952-6.952-6.952H40.238V10.69c0-4.798-3.893-8.691-8.69-8.691s-8.69 3.893-8.69 8.69v5.215H8.951c-3.823 0-6.917 3.128-6.917 6.952v13.21h5.18c5.179 0 9.385 4.206 9.385 9.385 0 5.18-4.206 9.386-9.386 9.386H2v13.21C2 71.87 5.129 75 8.952 75h13.21v-5.214c0-5.18 4.206-9.386 9.386-9.386 5.18 0 9.385 4.206 9.385 9.386V75h13.21c3.824 0 6.952-3.129 6.952-6.952V54.143h5.215c4.797 0 8.69-3.894 8.69-8.69a8.694 8.694 0 00-8.69-8.691z" fill="#fff" fill-opacity=".54" stroke="#EB850E" stroke-width="3"/><path fill-rule="evenodd" clip-rule="evenodd" d="M42.834 38.956a4.77 4.77 0 004.775-4.79 4.77 4.77 0 00-4.775-4.791c-2.65 0-4.79 2.14-4.79 4.79 0 2.651 2.14 4.791 4.79 4.791zm-9.58-1.597h-3.195v-3.193c0-.879-.718-1.597-1.597-1.597-.878 0-1.596.718-1.596 1.597v3.193h-3.194c-.878 0-1.597.719-1.597 1.597s.719 1.597 1.597 1.597h3.194v3.194c0 .878.718 1.597 1.596 1.597.879 0 1.597-.719 1.597-1.597v-3.194h3.194c.878 0 1.597-.718 1.597-1.597 0-.878-.719-1.597-1.597-1.597zm0 9.582c0-3.194 6.387-4.791 9.58-4.791 3.194 0 9.582 1.597 9.582 4.79v1.598c0 .878-.719 1.596-1.597 1.596H34.85a1.602 1.602 0 01-1.597-1.596V46.94z" fill="#EB850E"/></svg>
